components/icon/svg/24/action_visibility-off.svg

<?xml version="1.0" encoding="UTF-8"?>
<svg width="24px" height="24px" viewBox="0 0 24 24" version="1.1" xmlns="http://www.w3.org/2000/svg" xmlns:xlink="http://www.w3.org/1999/xlink">
    <!-- Generator: Sketch 64 (93537) - https://sketch.com -->
    <title>ic-db_action_visibility-off_24</title>
    <desc>Created with Sketch.</desc>
    <g id="Symbols" stroke="none" stroke-width="1" fill="none" fill-rule="evenodd">
        <g id="24dp-Icon/Action/Visibility-Off" fill="#282D37">
            <path d="M20,3 C20.53125,3 21,3.4375 21,4 C21,4.25 20.90625,4.5312 20.71875,4.7188 L20.71875,4.7188 L4.71875,20.7188 C4.5,20.9062 4.25,21 4,21 C3.4375,21 3,20.5938 3,20 C3,19.75 3.09375,19.5 3.28125,19.3125 L3.28125,19.3125 L6,16.5938 C4.59375,15.4062 3.3125,14.0938 2.21875,12.625 C2.0625,12.4375 2,12.2188 2,12 C2,11.7812 2.0625,11.5625 2.21875,11.375 C3.875,9.3125 7.3125,5 12,5 C13.53125,5.0312 15.03125,5.4688 16.34375,6.25 L16.34375,6.25 L19.28125,3.3125 C19.5,3.0938 19.75,3 20,3 Z M12,7 C8.65625,7 5.875,10.0625 4.28125,12 C5.21875,13.1875 6.25,14.2188 7.40625,15.1562 L7.40625,15.1562 L9.78125,12.8125 C9.65625,12.5625 9.625,12.2812 9.625,12 C9.625,10.6875 10.6875,9.625 12,9.625 C12.28125,9.625 12.5625,9.6875 12.8125,9.7812 L12.8125,9.7812 L14.84375,7.7188 C13.96875,7.2812 13,7.0312 12,7 Z M18.0625,10.1562 C18.71875,10.8125 19.25,11.4375 19.71875,12 C18.125,13.9688 15.34375,17 12,17 C11.75,17 11.53125,17 11.28125,16.9688 L9.625,18.625 C10.375,18.875 11.1875,19 12,19 C16.6875,19 20.125,14.6875 21.78125,12.625 C21.9375,12.4375 22,12.2188 22,12 C22,11.7812 21.9375,11.5625 21.78125,11.375 C21.0625,10.4688 20.3125,9.5938 19.5,8.75 L18.0625,10.1562 Z" id="🎨-Color"></path>
        </g>
    </g>
</svg>

<svg width="24" height="24" xmlns="http://www.w3.org/2000/svg"><path d="M20 3c.531 0 1 .438 1 1 0 .25-.094.531-.281.719l-16 16A1.101 1.101 0 014 21c-.563 0-1-.406-1-1 0-.25.094-.5.281-.688L6 16.595c-1.406-1.188-2.688-2.5-3.781-3.969A.955.955 0 012 12c0-.219.063-.438.219-.625C3.875 9.312 7.313 5 12 5a8.864 8.864 0 014.344 1.25l2.937-2.938A.998.998 0 0120 3zm-8 4c-3.344 0-6.125 3.063-7.719 5a19.903 19.903 0 003.125 3.156l2.375-2.344c-.125-.25-.156-.53-.156-.812A2.374 2.374 0 0112 9.625c.281 0 .563.063.813.156l2.03-2.062A6.833 6.833 0 0012 7zm6.063 3.156A26.581 26.581 0 0119.718 12c-1.594 1.969-4.375 5-7.719 5-.25 0-.469 0-.719-.031l-1.656 1.656c.75.25 1.563.375 2.375.375 4.688 0 8.125-4.313 9.781-6.375A.955.955 0 0022 12a.955.955 0 00-.219-.625A36.115 36.115 0 0019.5 8.75l-1.438 1.406z" fill="#282D37" fill-rule="evenodd"/></svg>
